X:1
T:Calver Lodge
T:Calver Lodge
T:Nathaniel Gow
C:Nathaniel Gow
L:1/8
M:4/4
K:G
V:1 treble 
V:1
 d |O g3 f agfe | d^cde dedB | GedB GedB | c2 A2 A3 d | g3 f agfe | d^cde dedB | GedB dcAB | %8
 G2 g2 g3!fine! || b | abc'b agfa | gabc' d'3 d' | d'c'ac' c'bgb | agab a3 b | abc'b agfa | %15
 gabd' d'3 d' | (d'c')ac' (c'b)gb |O afge .d(def)!D.C.! || %18

